static/images/mobile/copyright/wikipedia-tagline-fa.svg

<?xml version="1.0" encoding="UTF-8"?>
<svg width="72px" height="18px" viewBox="0 0 72 18" version="1.1" xmlns="http://www.w3.org/2000/svg" xmlns:xlink="http://www.w3.org/1999/xlink">
    <title>wikipedia-tagline-fa</title>
    <g id="Page-1" stroke="none" stroke-width="1" fill="none" fill-rule="evenodd">
        <path d="M13.4241699,10.1618566 C13.4615897,10.1743099 13.5146001,10.2242429 13.5832011,10.3115359 C13.8638438,10.6545528 14.1226691,11.1191812 14.3596653,11.7054689 C14.6091267,12.3228898 14.7338634,12.8374153 14.7338634,13.2490811 C14.7339353,14.4152861 14.3628505,15.5160154 13.6206928,16.5513169 C12.984556,17.4369152 12.4544399,17.8797502 12.0303806,17.8797502 C11.1198278,17.8797502 10.3339758,17.8329306 9.67287242,17.739423 C9.45459216,17.7082897 9.34544604,17.6552433 9.34544604,17.5803917 C9.34544604,17.5055521 9.45770549,17.4463031 9.68222438,17.4026446 C10.6177197,17.2093069 11.5594418,16.7134974 12.5074503,15.915192 C13.5177853,15.0607749 14.0229229,14.2407002 14.0229229,13.4548242 C14.0229181,12.9309468 13.6050663,12.2636288 12.7693292,11.4528342 L13.3119105,10.3208878 C13.3617956,10.2211416 13.3992154,10.1680952 13.4241699,10.1618566 Z M64.4927812,1.70273927 C64.5239624,1.70273927 64.5426663,1.77135225 64.5489049,1.90854227 C64.6299832,3.46772117 64.6705283,6.71695852 64.6705283,11.6563741 C64.6705283,12.1429035 64.5707461,12.588816 64.3711698,12.9942192 C64.2526717,13.237454 64.1715934,13.3590654 64.127947,13.3590654 C64.0780499,13.3590654 64.0531073,13.2062728 64.0531073,12.9006757 C64.0531049,11.5162024 63.8098726,8.13584604 63.323415,2.75984604 L64.3150341,1.83370264 C64.402351,1.75263635 64.461588,1.7089779 64.4927812,1.70273927 Z M18.6169146,1.70273927 C18.6480958,1.70273927 18.6667997,1.77135225 18.6730383,1.90854227 C18.7603433,3.39288154 18.8040137,6.64211889 18.8040137,11.6563741 C18.8040137,12.1304262 18.7011062,12.5763507 18.4953032,12.9942192 C18.3768051,13.237454 18.2957269,13.3590654 18.2520804,13.3590654 C18.2021833,13.3590654 18.1772408,13.2062728 18.1772408,12.9006757 C18.1772372,11.5162024 17.934006,8.13584604 17.4475484,2.75984604 L18.4391675,1.83370264 C18.5264724,1.75263635 18.5857215,1.7089779 18.6169146,1.70273927 Z M8.51273842,1.70273927 C8.5439196,1.70273927 8.56262352,1.77135225 8.56886215,1.90854227 C8.64994041,3.46772117 8.69048553,6.71695852 8.69048553,11.6563741 C8.69048553,12.1429035 8.59069138,12.588816 8.39112701,12.9942192 C8.27262894,13.237454 8.19155068,13.3590654 8.14790421,13.3590654 C8.09800713,13.3590654 8.07306458,13.2062728 8.07306458,12.9006757 C8.07306218,11.5162024 7.82982979,8.13584604 7.3433722,2.75984604 L8.3349913,1.83370264 C8.42229622,1.75263635 8.48154526,1.7089779 8.51273842,1.70273927 Z M27.7831766,5.80432217 L27.7967576,5.85772033 C27.8633544,6.14043421 28.1301191,7.42925581 28.5970606,9.72400285 C28.7529665,10.491115 28.8964071,10.9900499 29.0273944,11.2207954 C29.2269588,11.570051 29.5419079,11.7446728 29.9722418,11.7446728 L30.5616188,11.7446728 L30.5609123,11.7492231 L31.7228664,11.7500852 C31.9598626,11.7500852 32.1656656,11.7094922 32.3402874,11.6284738 C32.5149092,11.5474076 32.689531,11.4133069 32.8641648,11.2262078 C33.0387866,11.0391088 33.2305676,10.795886 33.4394959,10.4965274 C33.6484242,10.1971689 33.905681,9.83232274 34.2112781,9.40198888 C34.6041802,8.85316892 35.0064462,8.57875296 35.4180522,8.57875296 C36.0042919,8.57875296 36.4782723,8.87188482 36.8400051,9.45812459 C37.1081705,9.88221981 37.2609751,10.315667 37.2983949,10.7584182 C37.3046096,10.8207567 37.3077229,10.8815384 37.3077229,10.9407875 L37.3077229,11.1138526 L37.3077229,11.1138526 C37.3077229,11.4443923 37.2671778,11.7390808 37.1861115,11.9978942 C37.1050332,12.2567196 37.0052391,12.4734432 36.886753,12.648065 C36.7682549,12.8226988 36.6419615,12.9552188 36.5078728,13.045649 C36.3737842,13.1360553 36.2506041,13.1812944 36.1383567,13.1812944 C35.5022198,13.1812944 34.5978577,12.7728017 33.42545,11.9558403 C33.0574905,12.3861622 32.8049038,12.6574529 32.6677018,12.7697123 C32.355866,13.0129471 31.9723159,13.1345585 31.5170395,13.1345585 L30.4599327,13.1345585 L30.4591304,13.1286671 L29.91613,13.1292898 C28.8933177,13.1292898 28.2447515,12.493153 27.9702996,11.2208194 C27.4090024,11.775878 27.0846894,12.0534073 26.9973845,12.0534073 L25.9402777,12.0534073 C25.5723062,12.0534073 25.2012334,11.9972476 24.8270352,11.8850241 C24.3156351,11.7291062 24.059935,11.5108259 24.059935,11.2301713 C24.059935,10.3383344 24.3779974,9.60860613 25.0141463,9.04114212 C25.4507068,8.66070535 26.1835125,8.26780328 27.2125155,7.86241197 L26.9786446,6.71176165 L27.7831766,5.80432217 Z M2.62876294,6.0452938 C2.66618275,6.0452938 2.74413571,6.09211347 2.86263378,6.18560912 C4.85839715,7.78849437 5.85621896,9.2727139 5.85621896,10.6386269 C5.8561519,12.3037788 4.75226857,13.1363547 2.54453542,13.1363547 C1.7212995,13.1363547 1.11946914,13.0241551 0.739044334,12.7995763 C0.246348111,12.5126951 0,11.991931 0,11.2372841 C0,10.8818019 0.0966688525,10.520081 0.290006557,10.1521095 C0.377311475,9.9837263 0.458389736,9.89953471 0.533229366,9.89953471 C0.626772915,9.89953471 0.661079401,10.0023943 0.63613685,10.2082452 C0.617420955,10.3579244 0.608068995,10.4826612 0.608068995,10.5824433 C0.6080666,11.0813782 0.832587883,11.4181565 1.28162566,11.5927783 C1.56226828,11.6987512 2.00506743,11.7518096 2.61005902,11.7518096 C4.35627712,11.7518096 5.22944604,11.4805189 5.22944604,10.9379256 C5.22944006,10.0835085 4.20974711,8.9172556 2.17036123,7.43914298 L2.52585545,6.22302894 C2.56327527,6.10448297 2.59756978,6.0452938 2.62876294,6.0452938 Z M68.7498748,6.0452938 C68.7872947,6.0452938 68.8652476,6.09211347 68.9837457,6.18560912 C70.9795091,7.78849437 71.9773309,9.2727139 71.9773309,10.6386269 C71.977259,12.3037788 70.8733805,13.1363547 68.6656473,13.1363547 C67.8424114,13.1363547 67.240581,13.0241551 66.8601562,12.7995763 C66.36746,12.5126951 66.1211119,11.991931 66.1211119,11.2372841 C66.1211119,10.8818019 66.2177808,10.520081 66.4111185,10.1521095 C66.4984354,9.9837263 66.5795016,9.89953471 66.6543413,9.89953471 C66.7478848,9.89953471 66.7821913,10.0023943 66.7572488,10.2082452 C66.7385329,10.3579244 66.7291809,10.4826612 66.7291809,10.5824433 C66.7291785,11.0813782 66.9536998,11.4181565 67.4027376,11.5927783 C67.6833802,11.6987512 68.1261793,11.7518096 68.7311709,11.7518096 C70.477389,11.7518096 71.3505579,11.4805189 71.3505579,10.9379256 C71.350552,10.0835085 70.330859,8.9172556 68.2914731,7.43914298 L68.6469674,6.22302894 C68.6843872,6.10448297 68.7186817,6.0452938 68.7498748,6.0452938 Z M39.6751937,1.92214512 C39.7126135,1.92214512 39.7469081,1.99698475 39.7781012,2.14666401 C39.8092824,2.29635524 39.8373502,2.49747627 39.8622928,2.75005103 C39.8872354,3.00264975 39.9090646,3.29421297 39.9277805,3.6247407 C39.9464844,3.95529237 39.962075,4.299866 39.9745522,4.65846158 C39.9870295,5.01708111 39.9963815,5.378802 40.0026201,5.74363621 C40.0088468,6.10849437 40.0119601,6.44994269 40.0119601,6.76800513 L40.0119601,10.2574478 C40.0119577,11.2490788 40.4890657,11.7449004 41.443253,11.7449004 L42.6396693,11.7448165 C43.8059222,11.7448165 44.442047,11.2926654 44.5481397,10.3883632 C44.5917981,10.0266423 44.6822284,9.84576992 44.8194304,9.84576992 C44.9566324,9.84576992 45.0439493,10.032881 45.0813691,10.4070671 C45.1624473,11.298916 45.767391,11.7448405 46.8962001,11.7448405 L48.440447,11.7448165 C49.3073414,11.7448165 49.8186937,11.2770748 49.9745996,10.3415435 C50.0120194,10.110786 50.086859,9.99538931 50.1991185,9.99538931 C50.2989006,9.99538931 50.361263,10.1139473 50.3862175,10.3508955 C50.4797611,11.2801522 50.9818093,11.7448285 51.8923501,11.7448285 C52.7779484,11.7448285 53.2705967,11.2802001 53.3704627,10.3508955 C53.3954053,10.1138994 53.4577676,9.99538931 53.5575618,9.99538931 C53.6698093,9.99538931 53.7415356,10.1108339 53.7727287,10.3415435 C53.8974535,11.2770389 54.31531,11.7448165 55.0263225,11.7448165 C55.9119207,11.7448165 56.4045691,11.2801882 56.5044351,10.3508835 C56.5293776,10.1138874 56.59174,9.99538931 56.6915341,9.99538931 C56.8037816,9.99538931 56.8755079,10.110822 56.9067011,10.3415316 C57.0251872,11.2770269 57.4991675,11.7448046 58.328654,11.7448046 L58.7683758,11.7448046 L58.7676693,11.7492231 L59.3391926,11.7500852 C60.530388,11.7500852 61.1260037,11.5349303 61.1260037,11.1045964 C61.1260013,10.8052379 60.854713,10.3094284 60.3121197,9.61714383 L60.7985773,8.43842566 C60.8484744,8.31987969 60.8890076,8.26067855 60.9201887,8.26067855 C60.9513699,8.26067855 61.0168576,8.33240485 61.1166398,8.47584547 C61.6218013,9.21800314 61.874388,9.97886472 61.874388,10.7583943 C61.874388,12.3424559 61.0855783,13.1345585 59.5076716,13.1345585 L58.1137386,13.1345585 L58.1119501,13.1185218 C57.4366756,13.057137 56.9538878,12.733301 56.6634663,12.1470227 C56.3765731,12.8018634 55.846457,13.1292898 55.0731541,13.1292898 C54.3995974,13.1292898 53.8819467,12.8018634 53.5202019,12.1470227 C53.1834235,12.8018634 52.6533075,13.1292898 51.9298897,13.1292898 C51.0567567,13.1292898 50.4736901,12.8018634 50.1805582,12.1470227 C49.7252818,12.8018634 49.1047356,13.1292898 48.3189075,13.1292898 L47.0365155,13.1292898 C45.9326249,13.1292898 45.1935447,12.7675689 44.8193465,12.0441152 C44.4077286,12.7675689 43.5844328,13.1292898 42.3496388,13.1292898 L41.1615567,13.1292898 L41.1605987,13.1250748 L41.030746,13.1216171 C40.7388706,13.1011573 40.4819242,13.0397816 40.2599008,12.9375207 C39.9823715,12.8096587 39.7531706,12.6100944 39.5723102,12.3388037 C39.3914498,12.0675011 39.2589177,11.7182574 39.1747262,11.2910489 C39.0905346,10.8638403 39.0484328,10.3477582 39.0484328,9.74276664 L39.0577728,7.46021782 C39.0577716,6.37504319 38.9642172,4.82215082 38.7771182,2.80148083 L39.5161625,2.01566472 C39.5785249,1.9532784 39.6315353,1.92214512 39.6751937,1.92214512 Z M35.2309411,9.80415909 C34.8692083,9.80415909 34.4513636,10.1690053 33.9773474,10.8986857 C34.0646523,10.9984319 34.2112182,11.1091826 34.4170332,11.230794 C34.6228362,11.3524054 34.8426851,11.4662215 35.076556,11.5722423 C35.3104268,11.6782153 35.5411843,11.7671487 35.7688165,11.838863 C35.9964488,11.9105893 36.1757525,11.9463926 36.3067279,11.9463926 C36.4938269,11.9463926 36.5873705,11.843533 36.5874064,11.6376821 C36.5874064,11.4568696 36.5468613,11.2604185 36.465795,11.0483649 C36.3847167,10.8363233 36.2802526,10.6383156 36.1524026,10.4543299 C36.0245406,10.2703561 35.8795433,10.1159949 35.7173987,9.99125816 C35.5552422,9.86653343 35.3930857,9.80415909 35.2309411,9.80415909 Z M27.4183065,8.7885913 C27.0191538,8.90713728 26.5358215,9.10355239 25.9683336,9.37795638 C25.2012214,9.75215453 24.8176713,10.0483997 24.8176713,10.26668 C24.8176713,10.453779 25.1107912,10.5941063 25.6970429,10.6876499 C26.089945,10.7562629 26.4547912,10.7905095 26.7915695,10.7905095 C27.1844716,10.7905095 27.5274885,10.7562629 27.8206204,10.6876499 L27.4183065,8.7885913 Z M54.689604,6.23473984 L55.5783396,7.1140995 L54.6989679,7.98411917 L53.8195963,7.10474754 L54.689604,6.23473984 Z M52.5661103,6.23473984 L53.44547,7.1140995 L52.5754623,7.98411917 L51.6867387,7.10474754 L52.5661103,6.23473984 Z M44.5949354,5.97270535 L45.5772026,6.94562053 L44.6042874,7.91853571 L43.6220202,6.94562053 L44.5949354,5.97270535 Z M12.8816485,5.84924989 L13.8545636,6.82216507 L12.8816485,7.79508026 L11.9087333,6.81281311 L12.8816485,5.84924989 Z M60.808049,4.32215025 L61.7809642,5.30441739 L60.808049,6.27733257 L59.8351339,5.29506543 L60.808049,4.32215025 Z M53.6231572,4.36374911 L54.5025169,5.24310877 L53.6325092,6.1224804 L52.7437856,5.23375681 L53.6231572,4.36374911 Z M25.6864696,1.65563222 C26.1167914,1.65563222 26.4255139,1.85522053 26.612613,2.25434925 C26.6437942,2.33541554 26.6593847,2.39468852 26.6593847,2.43208439 C26.6593824,2.51315068 26.612601,2.55371974 26.5190574,2.55370777 C26.4816376,2.55371974 26.4348539,2.5441283 26.3787301,2.52568781 C26.1604499,2.44462153 25.9016245,2.40408838 25.602266,2.40407641 C25.533665,2.40408838 25.4557001,2.41652972 25.3683952,2.44143635 C25.2810783,2.46634298 25.2,2.49915267 25.1251723,2.53962594 C25.0503327,2.58021896 24.9879703,2.62691889 24.9380733,2.67995324 C24.8881762,2.73299957 24.8632336,2.78760257 24.8632336,2.84365445 C24.8632324,2.93717406 24.8975282,3.03077748 24.9661411,3.12430905 C25.0347421,3.21782865 25.126729,3.30206814 25.2421138,3.37689579 C25.3574865,3.45173542 25.4900185,3.51410976 25.6396978,3.56399487 C25.789377,3.61392787 25.9484083,3.6388345 26.1168034,3.6388345 C26.210347,3.63884647 26.3132545,3.62925502 26.4255139,3.61081454 C26.5377733,3.59213457 26.6624981,3.5671082 26.799712,3.53597491 C26.8246546,3.5235216 26.8480405,3.51729494 26.8698697,3.51729494 L26.9213234,3.51729494 L26.9213234,3.51729494 C26.9587433,3.51730691 26.9774472,3.53597491 26.9774472,3.5734546 C26.9774472,3.60458788 26.9743339,3.63272758 26.9681072,3.65763421 L26.8184399,4.24695139 C25.9515455,4.41534654 25.0565354,4.66481996 24.1335532,4.99534768 L24.1335532,4.55566187 C24.2083929,4.50572887 24.3113004,4.44501896 24.4422637,4.37324476 C24.5732271,4.30151846 24.729145,4.21578218 24.9100054,4.11597605 C24.4048319,3.77298304 24.1522572,3.47985118 24.1522572,3.23661639 C24.1522572,2.99963222 24.317527,2.68780841 24.6480667,2.30112103 C25.0097876,1.87081112 25.3559179,1.65563222 25.6864696,1.65563222 Z M19.7487772,-1.77635684e-15 C19.7986623,-1.77635684e-15 19.8236168,0.0155666429 19.8236168,0.0468196721 C19.8236168,0.0967526728 19.7425386,0.187158945 19.580394,0.318122309 L19.5804778,0.318182181 C19.0690657,0.742277406 18.4267022,0.954331005 17.6533274,0.954319031 C17.541068,0.954331005 17.3726728,0.940309052 17.148154,0.912169351 C16.9236351,0.884149394 16.7552399,0.870019672 16.6429805,0.870019672 C16.5781179,0.870029252 16.4962958,0.925890988 16.397508,1.03765393 L16.3202361,1.13195837 C16.1861474,1.30660413 16.0879219,1.39389708 16.0255595,1.39389708 C15.9195387,1.39389708 15.8665283,1.31905745 15.8665283,1.16937819 C15.8665283,1.06963193 15.9351293,0.866918318 16.0723433,0.561309195 C16.2220225,0.224542837 16.3529859,0.0561596579 16.4652453,0.0561476835 C16.5750069,0.056157263 16.7396551,0.0730880228 16.9591837,0.107019664 L17.13412,0.135657306 C17.4428305,0.188703635 17.6844967,0.215166928 17.8591304,0.215166928 C18.5451524,0.215178902 19.0565645,0.168347256 19.393283,0.0748396294 C19.5741434,0.0249066287 19.6926415,-1.77635684e-15 19.7487772,-1.77635684e-15 Z" id="wikipedia-tagline-fa" fill="#000000" fill-rule="nonzero"></path>
    </g>
</svg>

<svg xmlns="http://www.w3.org/2000/svg" width="72" height="18"><path fill="#000" fill-rule="nonzero" d="M13.424 10.162c.038.012.09.062.16.15.28.343.539.807.776 1.393.25.618.374 1.132.374 1.544 0 1.166-.371 2.267-1.113 3.302-.636.886-1.167 1.329-1.59 1.329-.911 0-1.697-.047-2.358-.14-.218-.032-.328-.085-.328-.16 0-.074.113-.134.337-.177.936-.194 1.877-.69 2.825-1.488 1.01-.854 1.516-1.674 1.516-2.46 0-.524-.418-1.191-1.254-2.002l.543-1.132c.05-.1.087-.153.112-.16Zm51.069-8.46c.031 0 .05.07.056.207.081 1.559.122 4.808.122 9.747 0 .487-.1.933-.3 1.338-.118.243-.2.365-.243.365-.05 0-.075-.153-.075-.458 0-1.385-.243-4.765-.73-10.141l.992-.926c.087-.081.147-.125.178-.131Zm-45.876 0c.031 0 .05.07.056.207.087 1.484.131 4.733.131 9.747 0 .474-.103.92-.309 1.338-.118.243-.2.365-.243.365-.05 0-.075-.153-.075-.458 0-1.385-.243-4.765-.73-10.141l.992-.926c.087-.081.147-.125.178-.131Zm-10.104 0c.03 0 .05.07.056.207.08 1.559.121 4.808.121 9.747 0 .487-.1.933-.299 1.338-.118.243-.2.365-.243.365-.05 0-.075-.153-.075-.458 0-1.385-.243-4.765-.73-10.141l.992-.926c.087-.081.147-.125.178-.131Zm19.27 4.102.014.054c.066.282.333 1.571.8 3.866.156.767.3 1.266.43 1.497.2.35.515.524.945.524h.59l-.001.004 1.162.001c.237 0 .443-.04.617-.122.175-.08.35-.215.524-.402.175-.187.367-.43.575-.73.21-.299.467-.664.772-1.094.393-.549.795-.823 1.207-.823.586 0 1.06.293 1.422.88a2.87 2.87 0 0 1 .468 1.482v.173c0 .33-.04.625-.122.884-.081.259-.18.475-.3.65a1.456 1.456 0 0 1-.378.398.676.676 0 0 1-.37.135c-.636 0-1.54-.408-2.713-1.225-.368.43-.62.701-.757.814-.312.243-.696.365-1.151.365H30.46v-.006h-.544c-1.023 0-1.671-.636-1.946-1.908-.561.555-.885.832-.973.832H25.94a3.86 3.86 0 0 1-1.113-.168c-.511-.156-.767-.374-.767-.655 0-.892.318-1.621.954-2.189.437-.38 1.17-.773 2.199-1.179l-.234-1.15.804-.908ZM2.63 6.045c.037 0 .115.047.234.14 1.995 1.603 2.993 3.088 2.993 4.454 0 1.665-1.104 2.497-3.311 2.497-.824 0-1.426-.112-1.806-.336C.246 12.513 0 11.992 0 11.237c0-.355.097-.717.29-1.085.087-.168.168-.252.243-.252.094 0 .128.102.103.308-.019.15-.028.275-.028.374 0 .5.225.836.674 1.01.28.107.723.16 1.328.16 1.746 0 2.62-.271 2.62-.814 0-.854-1.02-2.02-3.06-3.499l.356-1.216c.037-.119.072-.178.103-.178Zm66.12 0c.038 0 .116.047.235.14 1.996 1.603 2.993 3.088 2.993 4.454 0 1.665-1.104 2.497-3.311 2.497-.824 0-1.425-.112-1.806-.336-.493-.287-.739-.808-.739-1.563 0-.355.097-.717.29-1.085.087-.168.169-.252.243-.252.094 0 .128.102.103.308-.018.15-.028.275-.028.374 0 .5.225.836.674 1.01.28.107.723.16 1.328.16 1.746 0 2.62-.271 2.62-.814 0-.854-1.02-2.02-3.06-3.499l.356-1.216c.037-.119.072-.178.103-.178ZM39.676 1.922c.038 0 .072.075.103.225.031.15.06.35.084.603.025.253.047.544.066.875a61.4 61.4 0 0 1 .084 3.143v3.49c0 .991.477 1.487 1.431 1.487h1.197c1.166 0 1.802-.452 1.908-1.357.044-.361.134-.542.271-.542.138 0 .225.187.262.561.081.892.686 1.338 1.815 1.338h1.544c.867 0 1.379-.468 1.535-1.403.037-.231.112-.347.224-.347.1 0 .162.119.187.356.094.93.596 1.394 1.506 1.394.886 0 1.379-.465 1.478-1.394.025-.237.088-.356.188-.356.112 0 .184.116.215.347.124.935.542 1.403 1.253 1.403.886 0 1.379-.465 1.478-1.394.025-.237.088-.356.188-.356.112 0 .184.116.215.347.118.935.592 1.403 1.422 1.403h.44l-.001.004.571.001c1.191 0 1.787-.215 1.787-.645 0-.3-.271-.796-.814-1.488l.487-1.179c.05-.118.09-.177.121-.177s.097.071.197.215c.505.742.757 1.503.757 2.282 0 1.584-.788 2.377-2.366 2.377h-1.394l-.002-.016c-.675-.062-1.158-.386-1.449-.972-.286.655-.817.982-1.59.982-.673 0-1.191-.327-1.553-.982-.337.655-.867.982-1.59.982-.873 0-1.456-.327-1.75-.982-.455.655-1.075.982-1.861.982h-1.282c-1.104 0-1.843-.361-2.218-1.085-.411.724-1.235 1.085-2.47 1.085h-1.187l-.001-.004-.13-.003a2.199 2.199 0 0 1-.771-.184 1.646 1.646 0 0 1-.688-.6c-.18-.27-.313-.62-.397-1.047a8.14 8.14 0 0 1-.127-1.548l.01-2.283c0-1.085-.094-2.638-.28-4.659l.738-.785c.063-.063.116-.094.16-.094Zm-4.444 7.882c-.362 0-.78.365-1.254 1.095.088.1.234.21.44.332a6.876 6.876 0 0 0 1.352.608c.227.072.407.107.538.107.187 0 .28-.102.28-.308 0-.181-.04-.378-.121-.59a2.771 2.771 0 0 0-.314-.594 2.064 2.064 0 0 0-.435-.463.797.797 0 0 0-.486-.187ZM27.418 8.79a9.99 9.99 0 0 0-1.45.589c-.767.374-1.15.67-1.15.889 0 .187.293.327.879.42.393.07.758.104 1.095.104.392 0 .735-.035 1.029-.103l-.403-1.9ZM54.69 6.235l.888.88-.879.87-.88-.88.87-.87Zm-2.124 0 .88.88-.87.87-.89-.88.88-.87Zm-7.971-.262.982.973-.973.973-.982-.973.973-.973Zm-31.713-.124.973.973-.973.973-.973-.982.973-.964Zm47.926-1.527.973.982-.973.973-.973-.982.973-.973Zm-7.185.042.88.88-.87.878-.89-.888.88-.87ZM25.686 1.656c.43 0 .74.2.927.598a.57.57 0 0 1 .046.178c0 .081-.046.122-.14.122a.47.47 0 0 1-.14-.028 2.231 2.231 0 0 0-.777-.122.864.864 0 0 0-.234.037 1.203 1.203 0 0 0-.243.099.735.735 0 0 0-.187.14.24.24 0 0 0-.075.164c0 .093.035.187.103.28.069.094.16.178.276.253.115.075.248.137.398.187.15.05.308.075.477.075.093 0 .196-.01.309-.028.112-.019.236-.044.374-.075a.158.158 0 0 1 .07-.019h.051c.038 0 .056.019.056.056 0 .032-.003.06-.009.085l-.15.589c-.866.168-1.761.418-2.684.748v-.44c.074-.05.177-.11.308-.182l.468-.257c-.505-.343-.758-.636-.758-.88 0-.236.166-.548.496-.935.362-.43.708-.645 1.038-.645ZM19.75 0c.05 0 .075.016.075.047 0 .05-.081.14-.244.271-.51.424-1.153.636-1.927.636-.112 0-.28-.014-.505-.042a4.48 4.48 0 0 0-.505-.042c-.065 0-.147.056-.245.168l-.078.094c-.134.175-.232.262-.294.262-.106 0-.16-.075-.16-.225 0-.1.07-.302.206-.608.15-.336.281-.505.393-.505.11 0 .275.017.494.051l.175.029c.309.053.55.08.725.08.686 0 1.198-.048 1.534-.141.181-.05.3-.075.356-.075Z"/></svg>
